assets/images/icon-up.svg

<svg height="10" viewBox="0 0 15 10" width="15" xmlns="http://www.w3.org/2000/svg"><path d="m115.652332 24.3827983 4.297438 5.1569251c.530346.6364153.44436 1.5822624-.192056 2.1126085-.269572.2246438-.609372.3476681-.960276.3476681h-8.594876c-.828427 0-1.5-.6715729-1.5-1.5 0-.3509048.123025-.6907041.347668-.9602766l4.297438-5.1569251c.530346-.6364153 1.476193-.7224014 2.112609-.1920553.069694.0580788.133976.1223607.192055.1920553z" fill="#40a291" fill-rule="evenodd" transform="translate(-107 -23)"/></svg>

<?xml version="1.0" encoding="UTF-8"?>
<svg width="15px" height="10px" viewBox="0 0 15 10" version="1.1" xmlns="http://www.w3.org/2000/svg" xmlns:xlink="http://www.w3.org/1999/xlink">
    <title>上涨icon</title>
    <g id="页面-1" stroke="none" stroke-width="1" fill="none" fill-rule="evenodd">
        <g id="所需要icon" transform="translate(-107.000000, -23.000000)" fill="#40A291">
            <path d="M115.652332,24.3827983 L119.94977,29.5397234 C120.480116,30.1761387 120.39413,31.1219858 119.757714,31.6523319 C119.488142,31.8769757 119.148342,32 118.797438,32 L110.202562,32 C109.374135,32 108.702562,31.3284271 108.702562,30.5 C108.702562,30.1490952 108.825587,29.8092959 109.05023,29.5397234 L113.347668,24.3827983 C113.878014,23.746383 114.823861,23.6603969 115.460277,24.190743 C115.529971,24.2488218 115.594253,24.3131037 115.652332,24.3827983 Z" id="下跌"></path>
        </g>
    </g>
</svg>
